!! 00000] TT[WS
!!!OTL: Laicheng bainian
!!!ARE: Asia, China, Shanxi Baode
!! Ethnic Group: Han
!! WII, 175 (1)
!!!SCT: J0664
!!!YEM: Copyright 1995, estate of Helmut Schaffrath.
**kern
*ICvox
*Ivox
*M4/4
*k[b-e-]
*B-:
{4dd
8dd
8fff
8ddd
8ccc
4bb-
=1
4ddd
8gg
8ff
2dd}
=2
{4dd
8dd
8fff
8ddd
8ccc
4bb-
=3
4ddd
8gg
8ff
2dd}
=4
{8bb-
8gg
4bb-
8dd
8ff
4dd
=5
8bb-
8gg
8bb-
8bb-
8dd
8ff
4dd}
=6
{8bb-
8gg
4bb-
8dd
8ff
4dd
=7
8bb-
8gg
8bb-
8bb-
8dd
8ff
4dd}
=8
{8bb-
8ccc
8fff
8ddd
2ccc
=9
8ddd
8ccc
8ddd
8fff
8ddd
8ccc
8bb-
8bb-}
=10
{8dd
8ff
8gg
8bb-
2ff
=11
8gg
8bb-
2.ff}
==
!!!AGN: Xiaodiao, Qingge
!!!ONB: ESAC (Essen Associative Code) Database: CHINA
!!!AMT: simple quadruple
!!!AIN: vox
!!!EED: Helmut Schaffrath
!!!EEV: 1.0
*-
